logo/sameroom.svg

<?xml version="1.0" encoding="UTF-8" standalone="no"?>
<svg width="256px" height="256px" viewBox="0 0 256 256" version="1.1" xmlns="http://www.w3.org/2000/svg" xmlns:xlink="http://www.w3.org/1999/xlink" preserveAspectRatio="xMidYMid">
	<g>
		<rect fill="#78787A" x="0" y="0" width="256" height="256" rx="14"></rect>
		<g transform="translate(12.000000, 80.000000)">
			<path d="M68.4370779,34.4952847 C68.4370779,53.32329 53.1739167,68.585111 34.3459114,68.585111 C15.5179061,68.585111 0.256085081,53.32329 0.256085081,34.4952847 C0.256085081,15.6672794 15.5179061,0.404118228 34.3459114,0.404118228 C53.1739167,0.404118228 68.4370779,15.6672794 68.4370779,34.4952847" fill="#FFFFFF"></path>
			<path d="M53.5704077,34.4949925 C53.5704077,45.1122125 44.9634237,53.7184409 34.3462036,53.7184409 C23.7289836,53.7184409 15.1227552,45.1122125 15.1227552,34.4949925 C15.1227552,23.8777724 23.7289836,15.2707884 34.3462036,15.2707884 C44.9634237,15.2707884 53.5704077,23.8777724 53.5704077,34.4949925" fill="#1B94B8"></path>
		</g>
		<g transform="translate(176.000000, 80.000000)">
			<path d="M69.167646,34.4952847 C69.167646,53.32329 53.9044847,68.585111 35.0764795,68.585111 C16.2484742,68.585111 0.986653176,53.32329 0.986653176,34.4952847 C0.986653176,15.6672794 16.2484742,0.404118228 35.0764795,0.404118228 C53.9044847,0.404118228 69.167646,15.6672794 69.167646,34.4952847" fill="#FFFFFF"></path>
			<path d="M54.3009758,34.4949925 C54.3009758,45.1122125 45.6939917,53.7184409 35.0767717,53.7184409 C24.4595517,53.7184409 15.8533233,45.1122125 15.8533233,34.4949925 C15.8533233,23.8777724 24.4595517,15.2707884 35.0767717,15.2707884 C45.6939917,15.2707884 54.3009758,23.8777724 54.3009758,34.4949925" fill="#1B94B8"></path>
		</g>
		<path d="M127.903,209.484 C109.996,209.484 89.865,204.148 69.814,188.068 C66.08,185.074 65.484,179.624 68.474,175.894 C71.476,172.161 76.922,171.565 80.647,174.554 C129.095,213.421 177.176,176.639 179.197,175.049 C182.96,172.101 188.397,172.753 191.353,176.499 C194.304,180.25 193.679,185.674 189.937,188.639 C189.539,188.956 163.011,209.484 127.903,209.484" fill="#000000"></path>
	</g>
</svg>

<svg viewBox="0 0 256 256" xmlns="http://www.w3.org/2000/svg"><rect width="256" height="256" rx="14" fill="#78787A"/><g transform="translate(12 80)"><path fill="#FFF" d="M68.43 34.49c0 18.82-15.27 34.08-34.1 34.08C15.5 68.57.24 53.3.24 34.48 .24 15.65 15.5.38 34.32.38c18.82 0 34.09 15.26 34.09 34.09"/><path fill="#1B94B8" d="M53.57 34.49c0 10.61-8.61 19.22-19.23 19.22 -10.62 0-19.23-8.61-19.23-19.23 0-10.62 8.6-19.23 19.22-19.23 10.61 0 19.22 8.6 19.22 19.22"/></g><g transform="translate(176 80)"><path fill="#FFF" d="M69.16 34.49c0 18.82-15.27 34.08-34.1 34.08C16.23 68.57.97 53.3.97 34.48 .97 15.65 16.23.38 35.05.38c18.82 0 34.09 15.26 34.09 34.09"/><path fill="#1B94B8" d="M54.3 34.49c0 10.61-8.61 19.22-19.23 19.22 -10.62 0-19.23-8.61-19.23-19.23 0-10.62 8.6-19.23 19.22-19.23 10.61 0 19.22 8.6 19.22 19.22"/></g><path d="M127.9 209.484c-17.91 0-38.04-5.34-58.089-21.42 -3.74-3-4.33-8.45-1.34-12.18 3-3.74 8.44-4.33 12.17-1.34 48.44 38.86 96.529 2.08 98.55.49 3.76-2.95 9.2-2.3 12.15 1.45 2.95 3.75 2.32 9.17-1.42 12.14 -.4.31-26.93 20.84-62.04 20.84"/></svg>
